X: 20
T:London Lasses, The
T:Streams in the Valley
R:reel
D:Matt Molloy & Sean Keane: Contentment is Wealth
D:Sean Ryan: Siuil Uait
Z:id:hn-reel-214
M:C|
K:G
~G3B dG (3Bcd|eaag eg~g2|~G3B dG (3Bcd|e2dB AGEF|
~G3B dG (3Bcd|eaag eg~g2|bgag (3efg fa|1 gedB AGEF:|2 gedB AGef||
|:g2fg efge|dG~G2 BG (3Bcd|g2fg efge|dBGA BA~A2|
g2fg efge|dB~B2 dega|bgag (3efg fa|1 gedB AGef:|2 gedB AGEF||
